scalable/apps/duck-launcher.svg

<?xml version="1.0" encoding="UTF-8" standalone="no"?>
<!-- Created with Inkscape (http://www.inkscape.org/) -->

<svg
   xmlns:dc="http://purl.org/dc/elements/1.1/"
   xmlns:cc="http://creativecommons.org/ns#"
   xmlns:rdf="http://www.w3.org/1999/02/22-rdf-syntax-ns#"
   xmlns:svg="http://www.w3.org/2000/svg"
   xmlns="http://www.w3.org/2000/svg"
   xmlns:sodipodi="http://sodipodi.sourceforge.net/DTD/sodipodi-0.dtd"
   xmlns:inkscape="http://www.inkscape.org/namespaces/inkscape"
   version="1.1"
   width="100%"
   height="100%"
   viewBox="0 0 512 512"
   id="svg2"
   inkscape:version="0.91+devel r13804 custom"
   sodipodi:docname="duck-launcher.svg">
  <sodipodi:namedview
     pagecolor="#ffffff"
     bordercolor="#666666"
     borderopacity="1"
     objecttolerance="10"
     gridtolerance="10"
     guidetolerance="10"
     inkscape:pageopacity="0"
     inkscape:pageshadow="2"
     inkscape:window-width="1366"
     inkscape:window-height="709"
     id="namedview79"
     showgrid="false"
     inkscape:zoom="0.4609375"
     inkscape:cx="340.61017"
     inkscape:cy="139.9322"
     inkscape:window-x="-2"
     inkscape:window-y="-3"
     inkscape:window-maximized="1"
     inkscape:current-layer="svg2" />
  <metadata
     id="metadata70">
    <rdf:RDF>
      <cc:Work
         rdf:about="">
        <dc:format>image/svg+xml</dc:format>
        <dc:type
           rdf:resource="http://purl.org/dc/dcmitype/StillImage" />
        <dc:title />
      </cc:Work>
    </rdf:RDF>
  </metadata>
  <defs
     id="defs68" />
  <path
     d="m 471.9456,253.05189 c 0,120.89699 -98.00565,218.90724 -218.90724,218.90724 -120.89698,0 -218.90723,-98.00566 -218.90723,-218.90724 0,-120.89698 98.00565,-218.907232 218.90723,-218.907232 120.89699,0 218.90724,98.005652 218.90724,218.907232"
     inkscape:connector-curvature="0"
     id="path8"
     style="fill:#ff7f29;fill-opacity:1;fill-rule:evenodd" />
  <path
     d="M 256,1 C 115.17,1 1,115.17 1,256 1,396.83 115.17,511 256,511 396.83,511 511,396.83 511,256 511,115.17 396.83,1 256,1 m 8.827,44.931 c 120.9,0 218.9,98 218.9,218.9 0,120.9 -98,218.9 -218.9,218.9 -120.9,0 -218.93,-98 -218.93,-218.9 0,-120.9 98.03,-218.9 218.93,-218.9"
     inkscape:connector-curvature="0"
     id="path10"
     style="fill-opacity:0.06700003;fill-rule:evenodd" />
  <path
     d="M 256,4.43 C 117.06,4.43 4.43,117.06 4.43,256 4.43,394.94 117.06,507.57 256,507.57 394.94,507.57 507.57,394.94 507.57,256 507.57,117.06 394.94,4.43 256,4.43 m 5.885,38.556 c 120.9,0 218.9,98 218.9,218.9 0,120.9 -98,218.9 -218.9,218.9 -120.9,0 -218.93,-98 -218.93,-218.9 0,-120.9 98.03,-218.9 218.93,-218.9"
     inkscape:connector-curvature="0"
     id="path14"
     style="fill-opacity:0.12900002;fill-rule:evenodd" />
  <path
     d="M 256,8.36 C 119.23,8.36 8.36,119.23 8.36,256 8.36,392.77 119.23,503.64 256,503.64 392.77,503.64 503.64,392.77 503.64,256 503.64,119.23 392.77,8.36 256,8.36 m 2.942,31.691 c 120.9,0 218.9,98 218.9,218.9 0,120.9 -98,218.9 -218.9,218.9 -120.9,0 -218.93,-98 -218.93,-218.9 0,-120.9 98.03,-218.9 218.93,-218.9"
     inkscape:connector-curvature="0"
     id="path16"
     style="fill-opacity:0.12900002;fill-rule:evenodd" />
  <path
     d="M 253.04,7.86 C 117.62,7.86 7.85,117.64 7.85,253.05 c 0,135.42 109.78,245.19 245.19,245.19 135.42,0 245.19,-109.78 245.19,-245.19 C 498.23,117.63 388.45,7.86 253.04,7.86 z m 0,26.297 c 120.9,0 218.9,98 218.9,218.9 0,120.9 -98,218.9 -218.9,218.9 -120.9,0 -218.93,-98 -218.93,-218.9 0,-120.9 98.03,-218.9 218.93,-218.9 z"
     inkscape:connector-curvature="0"
     id="path18"
     style="fill:#ffffff;fill-rule:evenodd;stroke:#000000;stroke-width:4.90399981;stroke-opacity:0.31000001" />
  <text
     x="729.64001"
     y="231.35997"
     id="text20"
     style="font-size:129.22999573px;line-height:125%;letter-spacing:0;word-spacing:0;font-family:Gentium Book Basic">
    <tspan
       x="729.64001"
       y="231.35997"
       id="tspan22" />
  </text>
  <text
     x="378.90805"
     y="579.25812"
     transform="scale(4.0128205,0.24920128)"
     id="text24"
     style="font-size:46.95375824px;text-anchor:middle;font-family:Arial" />
  <text
     x="1310.91"
     y="151.35997"
     id="text26"
     style="font-size:129.22999573px;line-height:125%;letter-spacing:0;word-spacing:0;font-family:Gentium Book Basic">
    <tspan
       x="1310.91"
       y="151.35997"
       id="tspan28" />
  </text>
  <text
     x="523.75732"
     y="258.21997"
     transform="scale(4.0128205,0.24920128)"
     id="text30"
     style="font-size:46.95375824px;text-anchor:middle;font-family:Arial" />
  <text
     x="239.33"
     y="-29.900009"
     id="text32"
     style="font-size:129.22999573px;line-height:125%;letter-spacing:0;word-spacing:0;font-family:Gentium Book Basic">
    <tspan
       x="239.33"
       y="-29.900009"
       id="tspan34" />
  </text>
  <text
     x="256.71869"
     y="-469.1264"
     transform="scale(4.0128205,0.24920128)"
     id="text36"
     style="font-size:46.95375824px;text-anchor:middle;font-family:Arial" />
  <text
     x="1337.38"
     y="-246.37001"
     id="text38"
     style="font-size:129.22999573px;line-height:125%;letter-spacing:0;word-spacing:0;font-family:Gentium Book Basic">
    <tspan
       x="1337.38"
       y="-246.37001"
       id="tspan40" />
  </text>
  <text
     x="530.3573"
     y="-1337.802"
     transform="scale(4.0128205,0.24920128)"
     id="text42"
     style="font-size:46.95375824px;text-anchor:middle;font-family:Arial" />
  <text
     x="1918.65"
     y="-326.37"
     id="text44"
     style="font-size:129.22999573px;line-height:125%;letter-spacing:0;word-spacing:0;font-family:Gentium Book Basic">
    <tspan
       x="1918.65"
       y="-326.37"
       id="tspan46" />
  </text>
  <text
     x="675.20654"
     y="-1658.8303"
     transform="scale(4.0128205,0.24920128)"
     id="text48"
     style="font-size:46.95375824px;text-anchor:middle;font-family:Arial" />
  <text
     x="1529.53"
     y="-798.77002"
     id="text50"
     style="font-size:129.22999573px;line-height:125%;letter-spacing:0;word-spacing:0;font-family:Gentium Book Basic">
    <tspan
       x="1529.53"
       y="-798.77002"
       id="tspan52" />
  </text>
  <text
     x="578.237"
     y="-3554.4807"
     transform="scale(4.0128205,0.24920128)"
     id="text54"
     style="font-size:46.95375824px;text-anchor:middle;font-family:Arial" />
  <text
     x="2110.79"
     y="-878.78003"
     id="text56"
     style="font-size:129.22999573px;line-height:125%;letter-spacing:0;word-spacing:0;font-family:Gentium Book Basic">
    <tspan
       x="2110.79"
       y="-878.78003"
       id="tspan58" />
  </text>
  <text
     x="723.0863"
     y="-3875.519"
     transform="scale(4.0128205,0.24920128)"
     id="text60"
     style="font-size:46.95375824px;text-anchor:middle;font-family:Arial" />
  <text
     x="277.98999"
     y="535.94006"
     id="text62"
     style="font-size:208.33000183px;line-height:125%;letter-spacing:0;word-spacing:0;font-family:Gentium Book Basic">
    <tspan
       x="277.98999"
       y="535.94006"
       id="tspan64" />
  </text>
  <path
     style="fill:#000000;fill-opacity:1;stroke:none;opacity:0.25"
     d="M 257.2832 90.140625 C 254.63754 90.142926 252.02113 90.19391 249.45312 90.287109 C 172.41284 93.084186 121.88997 137.84993 103.26953 165.4082 C 83.407701 194.8037 57.427501 281.33883 101.91797 341.71875 C 108.43808 350.56747 115.27547 358.42586 122.25195 365.40234 L 227.29492 470.44531 C 235.74011 471.43482 244.32814 471.95898 253.03906 471.95898 C 373.94065 471.95898 471.94531 373.94972 471.94531 253.05273 C 471.94531 245.70819 471.57568 238.44973 470.86914 231.29102 L 383.91406 144.33594 C 356.66905 117.09093 317.53718 92.280397 265.28906 90.287109 C 262.60462 90.184705 259.92886 90.138324 257.2832 90.140625 z "
     id="path3962" />
  <path
     d="m 249.45371,90.287747 c -77.04029,2.797077 -127.56444,47.561843 -146.18488,75.120113 -19.861831,29.3955 -45.842257,115.93027 -1.35179,176.31019 44.49047,60.37992 103.81724,74.6678 120.50118,77.05122 16.68391,2.38342 38.42904,3.08977 38.42904,3.08977 16.08806,-0.298 107.06245,-18.55799 142.51578,-73.57523 C 438.81639,293.26658 442.55247,230.61679 422.0948,194.5676 401.63712,158.5184 351.19116,93.564958 265.28881,90.287747 c -5.36889,-0.204808 -10.69908,-0.186399 -15.8351,0 z m -5.79332,17.573093 c 22.93666,-0.70129 47.07213,2.8874 73.57523,10.6211 60.57854,17.677 90.27123,83.93784 94.04497,100.22451 3.77375,16.28669 13.68709,61.35116 -20.27664,112.19739 -33.96371,50.84625 -91.97102,70.56255 -104.08673,67.78191 -12.11572,-2.78066 -9.2194,-40.31718 -4.05533,-62.76103 5.16408,-22.44386 15.23408,-30.2413 22.98019,-33.02196 7.74612,-2.78064 36.76886,-3.61401 47.89149,-5.60021 11.1226,-1.98618 27.56013,-11.93502 36.49794,-27.22863 8.93783,-15.29358 9.40701,-27.8799 4.44154,-32.24949 -4.96545,-4.3696 -19.80922,4.3424 -50.59503,7.91753 -30.78581,3.57513 -44.12324,-2.32316 -47.69838,-9.0762 -3.57511,-6.753 7.66387,-15.30052 9.84866,-27.61486 2.1848,-12.31431 -27.99041,-37.39188 -35.33929,-39.97394 -7.34885,-2.58203 -30.52429,-4.2312 -64.88523,9.07621 -34.36094,13.30744 -51.9905,52.22396 -43.44994,77.05123 8.54058,24.82726 48.91284,73.4602 60.82992,89.79653 11.91708,16.33635 15.43237,35.87472 16.0282,40.93948 0.59576,5.06478 -2.03612,15.77453 -5.21401,17.95932 0,0 -4.54104,1.35177 -7.91753,1.35177 -3.37651,0 -29.25958,-9.97017 -39.58771,-12.5522 C 176.36456,390.11727 115.73734,348.97046 97.861712,289.38501 79.986081,229.79957 109.2302,161.17453 158.88474,132.77213 c 27.93068,-15.97635 55.28566,-24.00966 84.77565,-24.91129 z m 39.78083,119.92182 -22.59396,8.8831 c 0,0 6.93564,-4.76719 11.0073,-6.95201 4.07168,-2.18479 11.58666,-1.93109 11.58666,-1.93109 z"
     inkscape:connector-curvature="0"
     id="path3060"
     style="fill:#ffffff;fill-opacity:1;stroke:none" />
</svg>

<?xml version="1.0" encoding="UTF-8" standalone="no"?>
<!-- Created with Inkscape (http://www.inkscape.org/) -->
<svg id="svg2" xmlns:rdf="http://www.w3.org/1999/02/22-rdf-syntax-ns#" xmlns="http://www.w3.org/2000/svg" height="100%" viewBox="0 0 512 512" width="100%" version="1.1" xmlns:cc="http://creativecommons.org/ns#" xmlns:dc="http://purl.org/dc/elements/1.1/">
 <metadata id="metadata70">
  <rdf:RDF>
   <cc:Work rdf:about="">
    <dc:format>image/svg+xml</dc:format>
    <dc:type rdf:resource="http://purl.org/dc/dcmitype/StillImage"/>
    <dc:title/>
   </cc:Work>
  </rdf:RDF>
 </metadata>
 <path id="path8" fill-rule="evenodd" fill="#ff7f29" d="m471.95 253.05c0 120.9-98.006 218.91-218.91 218.91s-218.91-98.006-218.91-218.91 98.006-218.91 218.91-218.91 218.91 98.006 218.91 218.91"/>
 <path id="path10" d="m256 1c-140.83 0-255 114.17-255 255s114.17 255 255 255 255-114.17 255-255-114.17-255-255-255m8.827 44.931c120.9 0 218.9 98 218.9 218.9s-98 218.9-218.9 218.9-218.93-98-218.93-218.9 98.03-218.9 218.93-218.9" fill-rule="evenodd" fill-opacity=".067"/>
 <path id="path14" d="m256 4.43c-138.94 0-251.57 112.63-251.57 251.57s112.63 251.57 251.57 251.57 251.57-112.63 251.57-251.57-112.63-251.57-251.57-251.57m5.885 38.556c120.9 0 218.9 98 218.9 218.9s-98 218.9-218.9 218.9-218.93-98-218.93-218.9 98.03-218.9 218.93-218.9" fill-rule="evenodd" fill-opacity=".129"/>
 <path id="path16" d="m256 8.36c-136.77 0-247.64 110.87-247.64 247.64s110.87 247.64 247.64 247.64 247.64-110.87 247.64-247.64-110.87-247.64-247.64-247.64m2.942 31.691c120.9 0 218.9 98 218.9 218.9s-98 218.9-218.9 218.9-218.93-98-218.93-218.9 98.03-218.9 218.93-218.9" fill-rule="evenodd" fill-opacity=".129"/>
 <path id="path18" d="m253.04 7.86c-135.42 0-245.19 109.78-245.19 245.19 0 135.42 109.78 245.19 245.19 245.19 135.42 0 245.19-109.78 245.19-245.19 0-135.42-109.78-245.19-245.19-245.19zm0 26.297c120.9 0 218.9 98 218.9 218.9s-98 218.9-218.9 218.9-218.93-98-218.93-218.9 98.03-218.9 218.93-218.9z" stroke-opacity=".31" fill-rule="evenodd" stroke="#000" stroke-width="4.904" fill="#fff"/>
 <text id="text20" style="word-spacing:0;letter-spacing:0" font-size="129.23px" line-height="125%" y="231.35997" x="729.64001" font-family="Gentium Book Basic">
  <tspan id="tspan22" y="231.35997" x="729.64001"/>
 </text>
 <text id="text24" style="text-anchor:middle" font-size="46.954px" transform="scale(4.0128 .24920)" y="579.25812" x="378.90805" font-family="Arial"/>
 <text id="text26" style="word-spacing:0;letter-spacing:0" font-size="129.23px" line-height="125%" y="151.35997" x="1310.91" font-family="Gentium Book Basic">
  <tspan id="tspan28" y="151.35997" x="1310.91"/>
 </text>
 <text id="text30" style="text-anchor:middle" font-size="46.954px" transform="scale(4.0128 .24920)" y="258.21997" x="523.75732" font-family="Arial"/>
 <text id="text32" style="word-spacing:0;letter-spacing:0" font-size="129.23px" line-height="125%" y="-29.900009" x="239.33" font-family="Gentium Book Basic">
  <tspan id="tspan34" y="-29.900009" x="239.33"/>
 </text>
 <text id="text36" style="text-anchor:middle" font-size="46.954px" transform="scale(4.0128 .24920)" y="-469.1264" x="256.71869" font-family="Arial"/>
 <text id="text38" style="word-spacing:0;letter-spacing:0" font-size="129.23px" line-height="125%" y="-246.37001" x="1337.38" font-family="Gentium Book Basic">
  <tspan id="tspan40" y="-246.37001" x="1337.38"/>
 </text>
 <text id="text42" style="text-anchor:middle" font-size="46.954px" transform="scale(4.0128 .24920)" y="-1337.802" x="530.3573" font-family="Arial"/>
 <text id="text44" style="word-spacing:0;letter-spacing:0" font-size="129.23px" line-height="125%" y="-326.37" x="1918.65" font-family="Gentium Book Basic">
  <tspan id="tspan46" y="-326.37" x="1918.65"/>
 </text>
 <text id="text48" style="text-anchor:middle" font-size="46.954px" transform="scale(4.0128 .24920)" y="-1658.8303" x="675.20654" font-family="Arial"/>
 <text id="text50" style="word-spacing:0;letter-spacing:0" font-size="129.23px" line-height="125%" y="-798.77002" x="1529.53" font-family="Gentium Book Basic">
  <tspan id="tspan52" y="-798.77002" x="1529.53"/>
 </text>
 <text id="text54" style="text-anchor:middle" font-size="46.954px" transform="scale(4.0128 .24920)" y="-3554.4807" x="578.237" font-family="Arial"/>
 <text id="text56" style="word-spacing:0;letter-spacing:0" font-size="129.23px" line-height="125%" y="-878.78003" x="2110.79" font-family="Gentium Book Basic">
  <tspan id="tspan58" y="-878.78003" x="2110.79"/>
 </text>
 <text id="text60" style="text-anchor:middle" font-size="46.954px" transform="scale(4.0128 .24920)" y="-3875.519" x="723.0863" font-family="Arial"/>
 <text id="text62" style="word-spacing:0;letter-spacing:0" font-size="208.33px" line-height="125%" y="535.94006" x="277.98999" font-family="Gentium Book Basic">
  <tspan id="tspan64" y="535.94006" x="277.98999"/>
 </text>
 <path id="path3962" opacity=".25" d="m257.28 90.141c-2.64 0.002-5.26 0.053-7.83 0.146-77.04 2.797-127.56 47.563-146.18 75.123-19.862 29.39-45.842 115.93-1.35 176.31 6.52 8.85 13.36 16.71 20.33 23.68l105.04 105.05c8.45 0.98 17.04 1.51 25.75 1.51 120.9 0 218.91-98.01 218.91-218.91 0-7.34-0.37-14.6-1.08-21.76l-86.96-86.95c-27.24-27.25-66.37-52.06-118.62-54.053-2.69-0.102-5.36-0.149-8.01-0.146z"/>
 <path id="path3060" d="m249.45 90.288c-77.04 2.7971-127.56 47.562-146.18 75.12-19.862 29.396-45.842 115.93-1.3518 176.31s103.82 74.668 120.5 77.051c16.684 2.3834 38.429 3.0898 38.429 3.0898 16.088-0.298 107.06-18.558 142.52-73.575 35.45-55.02 39.18-117.67 18.72-153.72-20.45-36.05-70.9-101-156.8-104.28-5.3689-0.20481-10.699-0.1864-15.835 0zm-5.7933 17.573c22.937-0.70129 47.072 2.8874 73.575 10.621 60.579 17.677 90.271 83.938 94.045 100.22 3.7738 16.287 13.687 61.351-20.277 112.2-33.964 50.846-91.971 70.563-104.09 67.782-12.116-2.7807-9.2194-40.317-4.0553-62.761s15.234-30.241 22.98-33.022c7.7461-2.7806 36.769-3.614 47.891-5.6002 11.123-1.9862 27.56-11.935 36.498-27.229 8.9378-15.294 9.407-27.88 4.4415-32.249-4.9654-4.3696-19.809 4.3424-50.595 7.9175s-44.123-2.3232-47.698-9.0762c-3.5751-6.753 7.6639-15.301 9.8487-27.615s-27.99-37.392-35.339-39.974c-7.3488-2.582-30.524-4.2312-64.885 9.0762s-51.99 52.224-43.45 77.051c8.5406 24.827 48.913 73.46 60.83 89.797 11.917 16.336 15.432 35.875 16.028 40.939 0.59576 5.0648-2.0361 15.775-5.214 17.959 0 0-4.541 1.3518-7.9175 1.3518s-29.26-9.9702-39.588-12.552c-10.34-2.57-70.96-43.72-88.838-103.3-17.876-59.59 11.368-128.22 61.018-156.62 27.931-15.976 55.286-24.01 84.776-24.911zm39.781 119.92-22.594 8.8831s6.9356-4.7672 11.007-6.952c4.0717-2.1848 11.587-1.9311 11.587-1.9311z" fill="#fff"/>
</svg>
